Numix-GalliumOS/22/actions/package-broken.svg

<?xml version="1.0" encoding="UTF-8" standalone="no"?>
<svg
   xmlns:dc="http://purl.org/dc/elements/1.1/"
   xmlns:cc="http://creativecommons.org/ns#"
   xmlns:rdf="http://www.w3.org/1999/02/22-rdf-syntax-ns#"
   xmlns:svg="http://www.w3.org/2000/svg"
   xmlns="http://www.w3.org/2000/svg"
   xmlns:sodipodi="http://sodipodi.sourceforge.net/DTD/sodipodi-0.dtd"
   xmlns:inkscape="http://www.inkscape.org/namespaces/inkscape"
   width="22"
   viewBox="0 0 22 22"
   height="22"
   id="svg2"
   version="1.1"
   inkscape:version="0.91 r"
   sodipodi:docname="package-broken.svg">
  <metadata
     id="metadata20">
    <rdf:RDF>
      <cc:Work
         rdf:about="">
        <dc:format>image/svg+xml</dc:format>
        <dc:type
           rdf:resource="http://purl.org/dc/dcmitype/StillImage" />
      </cc:Work>
    </rdf:RDF>
  </metadata>
  <defs
     id="defs18" />
  <sodipodi:namedview
     pagecolor="#ffffff"
     bordercolor="#666666"
     borderopacity="1"
     objecttolerance="10"
     gridtolerance="10"
     guidetolerance="10"
     inkscape:pageopacity="0"
     inkscape:pageshadow="2"
     inkscape:window-width="1366"
     inkscape:window-height="747"
     id="namedview16"
     showgrid="true"
     inkscape:zoom="8.0000004"
     inkscape:cx="20.032827"
     inkscape:cy="3.0201833"
     inkscape:window-x="0"
     inkscape:window-y="21"
     inkscape:window-maximized="1"
     inkscape:current-layer="svg2">
    <inkscape:grid
       type="xygrid"
       id="grid3049" />
  </sodipodi:namedview>
  <g
     transform="matrix(.55556 0 0 .55556 -2.33333 11)"
     id="g4">
    <path
       d="M 8.0571429,-18 C 7.0285714,-18 6,-16.971429 6,-15.942857 L 6,16 c 0,0.971429 1.0285714,2 2,2 l 32,0 c 0.971429,0 2,-1.028571 2,-2 l 0,-32 c 0,-0.971429 -1.028571,-2 -2,-2 z"
       fill="#c19553"
       id="path6" />
  </g>
  <g
     transform="matrix(.55556 0 0 .55556 -2.33333 -2.33333)"
     fill="#fff"
     id="g8">
    <path
       d="M 8.0571429,6 C 7.0285714,6 6,7.0285714 6,8.0571429 L 6.0000001,18.6 C 10,18.6 38,18.6 42,18.6 L 42,8 C 42,7.0285714 40.971429,6 40,6 z"
       fill-opacity="0.196"
       id="path10" />
    <path
       d="M 20.4,9.6000001 20.4,25.8 l 7.2,0 0,-16.1999999 z"
       fill-opacity="0.392"
       id="path12" />
  </g>
  <path
     inkscape:connector-curvature="0"
     style="fill:#dc322f;fill-opacity:1;fill-rule:evenodd"
     d="m 22,17 a 5,5 0 0 1 -10,0 5,5 0 1 1 10,0 z"
     id="path4191" />
  <g
     style="line-height:125%;letter-spacing:0;word-spacing:0"
     transform="matrix(-0.5,0,0,-0.66666667,23,25.500009)"
     id="g4193">
    <path
       inkscape:connector-curvature="0"
       style="fill:#ffffff;fill-opacity:0.9"
       d="m 14,18 -4,0 0,-6 4,0 0,6"
       id="path4195" />
  </g>
  <g
     style="fill-rule:evenodd"
     transform="matrix(-0.49999884,0,0,-0.49999884,23.000004,23.499984)"
     id="g4197">
    <path
       inkscape:connector-curvature="0"
       style="fill:#ffffff;fill-opacity:0.9"
       d="m 13.169492,7.6271181 c 0,0.9547974 -0.717104,1.7288137 -1.601695,1.7288137 -0.884592,0 -1.6016952,-0.7740163 -1.6016952,-1.7288137 0,-0.9547974 0.7171032,-1.7288136 1.6016952,-1.7288136 0.884591,0 1.601695,0.7740162 1.601695,1.7288136 z"
       transform="matrix(1.24868,0,0,1.15686,-2.44444,-0.82353)"
       id="path4199" />
  </g>
</svg>

<svg xmlns="http://www.w3.org/2000/svg" viewBox="0 0 22 22">
 <g transform="matrix(.55556 0 0 .55556 -2.33333 11)">
  <path d="m 8.06 -18 c -1.029 0 -2.057 1.029 -2.057 2.057 l 0 31.943 c 0 0.971 1.029 2 2 2 l 32 0 c 0.971 0 2 -1.029 2 -2 l 0 -32 c 0 -0.971 -1.029 -2 -2 -2 z" style="fill:#c19553"/>
 </g>
 <g transform="matrix(.55556 0 0 .55556 -2.33333 -2.33333)" style="fill:#fff">
  <path d="m 8.06 6 c -1.029 0 -2.057 1.029 -2.057 2.057 l 0 10.543 c 4 0 32 0 36 0 l 0 -10.6 c 0 -0.971 -1.029 -2 -2 -2 z" style="fill-opacity:0.196"/>
  <path d="m 20.4 9.6 0 16.2 l 7.2 0 0 -16.2 z" style="fill-opacity:0.392"/>
 </g>
 <path d="m 22 17 a 5 5 0 0 1 -10 0 5 5 0 1 1 10 0 z" style="fill:#dc322f;fill-opacity:1;fill-rule:evenodd"/>
 <g transform="matrix(-0.5,0,0,-0.66666667,23,25.500009)">
  <path d="m 14 18 -4 0 0 -6 4 0 0 6" style="fill:#fff;fill-opacity:0.9"/>
 </g>
 <g transform="matrix(-0.49999884,0,0,-0.49999884,23.000004,23.499984)" style="fill-rule:evenodd">
  <path d="m 13.169 7.627 c 0 0.955 -0.717 1.729 -1.602 1.729 -0.885 0 -1.602 -0.774 -1.602 -1.729 0 -0.955 0.717 -1.729 1.602 -1.729 0.885 0 1.602 0.774 1.602 1.729 z" transform="matrix(1.24868,0,0,1.15686,-2.44444,-0.82353)" style="fill:#fff;fill-opacity:0.9"/>
 </g>
</svg>
